X:46
T:La Chasse.2voices RH.046
R:Jig
S:Rev.R.Harrison’s MS,c1815,Cumbria
O:England
A:Temple Sowerby,Cumbria
Z:vmp.Simon Wilson. Review PJH, 2008.
M:6/8
L:1/8
Q:3/8=120
K:G
[V:1]|:d>ed gfe|edd d2c|Bdg dBG|AAA A2z|
[V:2]|:B>cB edc|cBB B2A|GBd BGE|DDD D2z|
%
[V:1] d>ed gfe|edd d2c|BdG AGA|GGG G2z:|
[V:2] B>cB edc|cBB B2A|G2G D2D|GGG G2z:|
%
[V:1]|:GGG G2A|BBB B2c|ded dcB|AAA A2z|
[V:2]|:z6|GGG G2A|BcB BAG|DDD D2z|
%
[V:1] GGG G2A|BBB B2c|d>ed dcB|AAA A2″ DC”z|]
[V:2] z6|GGG G2A|B>cB BAG|DDD D2″ DC”z|]

